X:1
T:Die finster nachte
T:Die finster nachte
T:Adam Gumpelzhaimer
T:Source : Neüe Teütsche Geistliche Lieder mit 3 stimmen---Augsburg---V.Schonigk---1591. Editor : André Vierendeels (13/07/16).
T:Notes : Original clefs : G2, C1, C3 Editorial accidentals above the staff Text Middle German See also the Latin version"Ecce jam noctis" (A.Gumpelzhaimer)
T:©
T:©
C:Adam Gumpelzhaimer
Z:©
%%score [ 1 2 3 ]
L:1/8
Q:1/4=96
M:4/4
K:F
V:1 treble nm="Soprano 1" snm="S 1"
V:2 treble nm="Soprano 2" snm="S 2"
V:3 treble-8 nm="Tenor" snm="T"
V:1
 d4 B2 B2 | c4 d4 | B3 B c2 B2 |1 A4 =B4 :|2 A4 =B4 |: z2 d2 c2 A2 | c4 B2 G2- | G2 A2 c2 d2 | %8
w: Die fin- ster|nach- te,|nun ver- geth mit|mach- te,|mach- te,|die mor- gen|kla- re leüch-|* tet schön so|
w: Tun- kel müsz|wei- chen,|sampt dem schlaf zu-|glei- chen,|glei- chen,||||
w: |||||drumb ge- birt|al- len inn|_ dem liecht zu|
 _e4 d4 | z2 B2 c2 B2 | A2 GF G4 | A2 d4 c2 | A2 d2 c4 |1[M:2/4] d4 :|2 d4 |:[M:4/4] d8 | c8 | %17
w: ga- re,|Christ uns ge-|ge- * * *|ben, schei- net|uns gar e-|ben,|ben|zum|neü|
w: |||||||||
w: wal- len,|und uns be-|dach- * * *|te, bit- ten|mit an- dach-|te,|te,|Got-|tes|
 B4 A4- | A4 !fermata!=B4 :| %19
w: en le-|* ben.|
w: ||
w: all- mach-|* te.|
V:2
 F4 G2 B2 | A4 B4 | G3 F E2 G2 |1 ^F4 G4 :|2 ^F4 G2 B2 |: A2 ^F2 A4 | G4 z2 B2- | B2 F2 G2 B2- | %8
w: Die fin- ster|nach- te,|nun ver- geth mit|mach- te,|mach- te, die|mor- gen kla-|re leüch-|* tet schön so|
w: Tun- kel müsz|wei- chen,|sampt dem schlaf zu|glei- chen,|||||
w: ||||glei- chen, drumb|ge- birt al-|len inn|_ dem liecht zu|
 B2 A2 B2 B2 | A2 G2 F4- | F2 ED E4 | F2 F4 E2 | F2 B2 A4 |1[M:2/4] B2 B2 :|2 B4 |:[M:4/4] B8 | %16
w: _ ga- re, Christ|uns ge- ge-||ben, schei- net|uns gar e-|ben, die|ben,|zum|
w: ||||||||
w: _ wal- len, und|und uns be-|dach- * * *|te, bit- ten|mit an- dach-|te, drumb|te,|Got-|
 A4 ^F4 | G6 FE | ^F4 !fermata!G4 :| %19
w: neü- en|le- * *|* ben.|
w: |||
w: tes all-|mach- * *|* te.|
V:3
 B4 _e2 g2 | f4 B4 | _e3 d c2 G2 |1 d4 G4 :|2 d4 G2 g2 |:"^#""^-natural" f2 d2 f4 | c4 _e4- | %7
w: Die fin- ster|nach- te,|nun ver- geth mit|mach- te,|mach- te, die|mor- gen kla-|re leüch-|
w: Tun- kel müsz|wei- chen,|sampt dem schlaf zu|glei- chen,|glei- chen, drumb|ge- birt al-|len inn|
 e2 d2 c2 B2 | c4 B4 | z2 G2 A2 B2 | c8 | F2 B4 c2 | d2 B2 f4 |1[M:2/4] B2 g2 :|2 B4 |: %15
w: * tet schön ga-|re, Christ|uns ge- ge-||ben, schei- net|uns gar e-|ben, die|ben,|
w: _ dem liecht zu|wal- len,-|und uns be-|dach-|te, bit- ten|mit an- dach-|te, drumb|te,|
[M:4/4] G4 B4 | c4 d4- | d8- | d4 !fermata!G4 :| %19
w: zum neü-|en le-||* ben.|
w: Got- tes|all- mach-||* te.|

